images/icons8-microphone.svg

<svg height="64" viewBox="0 0 64 64" width="64" xmlns="http://www.w3.org/2000/svg"><path d="m45.949219 2.007812c-3.070313 0-6.230469.980469-8.789063 2.941407-1.140625-.609375-2.601562-.4375-3.5625.519531-.558594.570312-.867187 1.320312-.867187 2.132812 0 .648438.199219 1.257813.570312 1.765626-1.101562 1.890624-1.921875 4.0625-2.320312 6.285156-.378907.109375-.71875.328125-.96875.628906l-19.339844 23.207031c-.578125.691407-.785156 1.5625-.65625 2.386719l-2.359375 3.417969c-.953125 1.195312-.859375 2.910156.222656 3.992187l.800782.808594-.296876.296875c-2.332031 2.332031-2.996093 5.675781-1.726562 8.726563 1.261719 3.039062 4.089844 4.929687 7.386719 4.929687h.019531l10.941406-.046875c.554688-.003906 1-.453125.996094-1.003906-.003906-.550782-.449219-.996094-1-.996094h-.003906l-10.9375.046875h-.023438c-2.945312 0-4.789062-1.910156-5.535156-3.699219-.742188-1.789062-.792969-4.453125 1.296875-6.546875l.296875-.296875.910156.90625c.589844.59375 1.367188.890625 2.136719.890625.644531 0 1.285156-.210937 1.800781-.625l3.476563-2.398437c.152343.023437.308593.042968.460937.042968.671875 0 1.363282-.230468 1.921875-.699218l23.210938-19.339844c.296875-.25.507812-.582031.628906-.953125 2.210937-.398437 4.390625-1.207031 6.296875-2.339844.523438.382813 1.140625.574219 1.761719.574219.761719 0 1.53125-.292969 2.121093-.875.558594-.566406.878907-1.316406.878907-2.117188 0-.511718-.121094-.988281-.359375-1.417968 1.71875-2.28125 2.769531-5.140625 2.929687-8.082032.199219-3.761718-1.019531-7.167968-3.449219-9.601562-2.320312-2.316406-5.550781-3.460938-8.871093-3.460938zm.414062 1.976563c2.648438.089844 5.1875 1.050781 7.039063 2.90625 2.027344 2.019531 3.046875 4.890625 2.867187 8.078125-.128906 2.402344-.9375 4.730469-2.28125 6.640625l-15.308593-15.308594c2.28125-1.625 5.035156-2.40625 7.683593-2.316406zm-10.632812 2.617187c.25 0 .507812.089844.699219.289063l.710937.710937 15.546875 15.550782.714844.707031c.1875.191406.296875.441406.296875.710937 0 .191407-.058594.378907-.167969.539063v.011719c-.042969.046875-.082031.097656-.128906.148437-.070313.070313-.152344.121094-.230469.160157-.011719.011718-.019531.019531-.03125.019531-.371094.191406-.839844.128906-1.152344-.179688l-.816406-.820312-15.324219-15.316407-.828125-.832031c-.191406-.191406-.289062-.441406-.289062-.699219 0-.140624.03125-.261718.070312-.382812.011719-.019531.011719-.019531.011719-.03125.046875-.109375.117188-.207031.207031-.296875.058594-.058594.121094-.109375.179688-.140625.160156-.101562.351562-.148438.53125-.148438zm-.980469 4.269532 14.6875 14.679687c-1.617188.878907-3.4375 1.511719-5.257812 1.828125-.011719-.019531-.019532-.027344-.039063-.050781l-11.179687-11.175781-.03125-.03125c.320312-1.84375.949218-3.652344 1.820312-5.25zm-3.199219 6.691406 1.128907 1.125 8.929687 8.933594 1.121094 1.117187-1.050781.882813-22.160157 18.457031c-.398437.34375-.980469.3125-1.347656-.058594l-5.902344-5.898437c-.371093-.371094-.398437-.953125-.058593-1.351563l18.46875-22.171875zm-.066406 3.171875c-.257813.003906-.511719.101563-.707031.296875l-1.417969 1.410156c-.390625.394532-.390625 1.023438 0 1.417969.195313.191406.453125.292969.707031.292969.257813 0 .515625-.101563.710938-.292969l1.410156-1.417969c.394531-.390625.394531-1.019531 0-1.410156-.195312-.199219-.449219-.296875-.703125-.296875zm3.535156 3.539063c-.257812 0-.511719.097656-.707031.292968l-1.414062 1.414063c-.390626.390625-.390626 1.023437 0 1.414062.195312.195313.449218.292969.707031.292969.257812 0 .511719-.097656.707031-.292969l1.414062-1.414062c.390626-.390625.390626-1.023438 0-1.414063-.195312-.195312-.449218-.292968-.707031-.292968zm3.53125 3.535156c-.253906 0-.507812.097656-.703125.292968l-1.414062 1.414063c-.390625.390625-.390625 1.023437 0 1.414063.195312.195312.449218.292968.707031.292968s.511719-.097656.707031-.292968l1.414063-1.414063c.390625-.390625.390625-1.023437 0-1.414063-.195313-.195312-.453125-.292968-.710938-.292968zm-9.894531.859375c-.78125-.003907-1.554688.28125-2.125.847656l-2.828125 2.828125c-.5625.566406-.875 1.320312-.875 2.125 0 .800781.308594 1.554688.875 2.121094.585937.582031 1.355469.875 2.125.875.765625 0 1.535156-.292969 2.121094-.875l2.828125-2.828125c1.167968-1.171875 1.167968-3.074219 0-4.246094-.566406-.566406-1.34375-.847656-2.121094-.847656zm0 1.96875c.265625 0 .515625.105469.703125.292969.390625.390624.390625 1.023437 0 1.414062l-2.828125 2.828125c-.378906.378906-1.03125.378906-1.410156 0-.191406-.1875-.292969-.4375-.292969-.707031 0-.269532.101563-.519532.292969-.707032l2.828125-2.828124c.1875-.1875.4375-.292969.707031-.292969zm-17.542969 13.164062 4.9375 4.933594.445313.4375-2.746094 1.902344c-.398438.316406-.972656.285156-1.332031-.074219l-3.125-3.125c-.359375-.363281-.390625-.9375-.03125-1.390625zm17.886719 18.199219c-.554688 0-1 .449219-1 1s.445312 1 1 1h4c.554688 0 1-.449219 1-1s-.445312-1-1-1zm0 0" fill="#044e54"/></svg>

<?xml version="1.0" encoding="UTF-8"?>
<svg xmlns="http://www.w3.org/2000/svg" xmlns:xlink="http://www.w3.org/1999/xlink" viewBox="0 0 64 64" width="64px" height="64px">
<g id="surface17020081">
<path style=" stroke:none;fill-rule:nonzero;fill:rgb(1.568628%,30.588236%,32.941177%);fill-opacity:1;" d="M 45.949219 2.007812 C 42.878906 2.007812 39.71875 2.988281 37.160156 4.949219 C 36.019531 4.339844 34.558594 4.511719 33.597656 5.46875 C 33.039062 6.039062 32.730469 6.789062 32.730469 7.601562 C 32.730469 8.25 32.929688 8.859375 33.300781 9.367188 C 32.199219 11.257812 31.378906 13.429688 30.980469 15.652344 C 30.601562 15.761719 30.261719 15.980469 30.011719 16.28125 L 10.671875 39.488281 C 10.09375 40.179688 9.886719 41.050781 10.015625 41.875 L 7.65625 45.292969 C 6.703125 46.488281 6.796875 48.203125 7.878906 49.285156 L 8.679688 50.09375 L 8.382812 50.390625 C 6.050781 52.722656 5.386719 56.066406 6.65625 59.117188 C 7.917969 62.15625 10.746094 64.046875 14.042969 64.046875 L 14.0625 64.046875 L 25.003906 64 C 25.558594 63.996094 26.003906 63.546875 26 62.996094 C 25.996094 62.445312 25.550781 62 25 62 L 24.996094 62 L 14.058594 62.046875 L 14.035156 62.046875 C 11.089844 62.046875 9.246094 60.136719 8.5 58.347656 C 7.757812 56.558594 7.707031 53.894531 9.796875 51.800781 L 10.09375 51.503906 L 11.003906 52.410156 C 11.59375 53.003906 12.371094 53.300781 13.140625 53.300781 C 13.785156 53.300781 14.425781 53.089844 14.941406 52.675781 L 18.417969 50.277344 C 18.570312 50.300781 18.726562 50.320312 18.878906 50.320312 C 19.550781 50.320312 20.242188 50.089844 20.800781 49.621094 L 44.011719 30.28125 C 44.308594 30.03125 44.519531 29.699219 44.640625 29.328125 C 46.851562 28.929688 49.03125 28.121094 50.9375 26.988281 C 51.460938 27.371094 52.078125 27.5625 52.699219 27.5625 C 53.460938 27.5625 54.230469 27.269531 54.820312 26.6875 C 55.378906 26.121094 55.699219 25.371094 55.699219 24.570312 C 55.699219 24.058594 55.578125 23.582031 55.339844 23.152344 C 57.058594 20.871094 58.109375 18.011719 58.269531 15.070312 C 58.46875 11.308594 57.25 7.902344 54.820312 5.46875 C 52.5 3.152344 49.269531 2.007812 45.949219 2.007812 Z M 46.363281 3.984375 C 49.011719 4.074219 51.550781 5.035156 53.402344 6.890625 C 55.429688 8.910156 56.449219 11.78125 56.269531 14.96875 C 56.140625 17.371094 55.332031 19.699219 53.988281 21.609375 L 38.679688 6.300781 C 40.960938 4.675781 43.714844 3.894531 46.363281 3.984375 Z M 35.730469 6.601562 C 35.980469 6.601562 36.238281 6.691406 36.429688 6.890625 L 37.140625 7.601562 L 52.6875 23.152344 L 53.402344 23.859375 C 53.589844 24.050781 53.699219 24.300781 53.699219 24.570312 C 53.699219 24.761719 53.640625 24.949219 53.53125 25.109375 L 53.53125 25.121094 C 53.488281 25.167969 53.449219 25.21875 53.402344 25.269531 C 53.332031 25.339844 53.25 25.390625 53.171875 25.429688 C 53.160156 25.441406 53.152344 25.449219 53.140625 25.449219 C 52.769531 25.640625 52.300781 25.578125 51.988281 25.269531 L 51.171875 24.449219 L 35.847656 9.132812 L 35.019531 8.300781 C 34.828125 8.109375 34.730469 7.859375 34.730469 7.601562 C 34.730469 7.460938 34.761719 7.339844 34.800781 7.21875 C 34.8125 7.199219 34.8125 7.199219 34.8125 7.1875 C 34.859375 7.078125 34.929688 6.980469 35.019531 6.890625 C 35.078125 6.832031 35.140625 6.78125 35.199219 6.75 C 35.359375 6.648438 35.550781 6.601562 35.730469 6.601562 Z M 34.75 10.871094 L 49.4375 25.550781 C 47.820312 26.429688 46 27.0625 44.179688 27.378906 C 44.167969 27.359375 44.160156 27.351562 44.140625 27.328125 L 32.960938 16.152344 L 32.929688 16.121094 C 33.25 14.277344 33.878906 12.46875 34.75 10.871094 Z M 31.550781 17.5625 L 32.679688 18.6875 L 41.609375 27.621094 L 42.730469 28.738281 L 41.679688 29.621094 L 19.519531 48.078125 C 19.121094 48.421875 18.539062 48.390625 18.171875 48.019531 L 12.269531 42.121094 C 11.898438 41.75 11.871094 41.167969 12.210938 40.769531 L 30.679688 18.597656 Z M 31.484375 20.734375 C 31.226562 20.738281 30.972656 20.835938 30.777344 21.03125 L 29.359375 22.441406 C 28.96875 22.835938 28.96875 23.464844 29.359375 23.859375 C 29.554688 24.050781 29.8125 24.152344 30.066406 24.152344 C 30.324219 24.152344 30.582031 24.050781 30.777344 23.859375 L 32.1875 22.441406 C 32.582031 22.050781 32.582031 21.421875 32.1875 21.03125 C 31.992188 20.832031 31.738281 20.734375 31.484375 20.734375 Z M 35.019531 24.273438 C 34.761719 24.273438 34.507812 24.371094 34.3125 24.566406 L 32.898438 25.980469 C 32.507812 26.371094 32.507812 27.003906 32.898438 27.394531 C 33.09375 27.589844 33.347656 27.6875 33.605469 27.6875 C 33.863281 27.6875 34.117188 27.589844 34.3125 27.394531 L 35.726562 25.980469 C 36.117188 25.589844 36.117188 24.957031 35.726562 24.566406 C 35.53125 24.371094 35.277344 24.273438 35.019531 24.273438 Z M 38.550781 27.808594 C 38.296875 27.808594 38.042969 27.90625 37.847656 28.101562 L 36.433594 29.515625 C 36.042969 29.90625 36.042969 30.539062 36.433594 30.929688 C 36.628906 31.125 36.882812 31.222656 37.140625 31.222656 C 37.398438 31.222656 37.652344 31.125 37.847656 30.929688 L 39.261719 29.515625 C 39.652344 29.125 39.652344 28.492188 39.261719 28.101562 C 39.066406 27.90625 38.808594 27.808594 38.550781 27.808594 Z M 28.65625 28.667969 C 27.875 28.664062 27.101562 28.949219 26.53125 29.515625 L 23.703125 32.34375 C 23.140625 32.910156 22.828125 33.664062 22.828125 34.46875 C 22.828125 35.269531 23.136719 36.023438 23.703125 36.589844 C 24.289062 37.171875 25.058594 37.464844 25.828125 37.464844 C 26.59375 37.464844 27.363281 37.171875 27.949219 36.589844 L 30.777344 33.761719 C 31.945312 32.589844 31.945312 30.6875 30.777344 29.515625 C 30.210938 28.949219 29.433594 28.667969 28.65625 28.667969 Z M 28.65625 30.636719 C 28.921875 30.636719 29.171875 30.742188 29.359375 30.929688 C 29.75 31.320312 29.75 31.953125 29.359375 32.34375 L 26.53125 35.171875 C 26.152344 35.550781 25.5 35.550781 25.121094 35.171875 C 24.929688 34.984375 24.828125 34.734375 24.828125 34.464844 C 24.828125 34.195312 24.929688 33.945312 25.121094 33.757812 L 27.949219 30.929688 C 28.136719 30.742188 28.386719 30.636719 28.65625 30.636719 Z M 11.113281 43.800781 L 16.050781 48.734375 L 16.496094 49.171875 L 13.75 51.074219 C 13.351562 51.390625 12.777344 51.359375 12.417969 51 L 9.292969 47.875 C 8.933594 47.511719 8.902344 46.9375 9.261719 46.484375 Z M 29 62 C 28.445312 62 28 62.449219 28 63 C 28 63.550781 28.445312 64 29 64 L 33 64 C 33.554688 64 34 63.550781 34 63 C 34 62.449219 33.554688 62 33 62 Z M 29 62 "/>
</g>
</svg>
